X:165
T:We Have Nothing Else to Do. JJo8.165
%%VWML:JohnsonVol8-2184-p83-0
F:http://www.vwml.org/record/JohnsonVol8/2184/p83
Z:Transcribed by Simon Furey and Lewis Jones
Z:vmp.Simon Wilson 2013 www.village-music-project.org.uk
Z:Dance added by John Chambers 2017
M:9/8
L:1/8
%Q:3/8=120
K:A
E |:\
ABA cec BGE | ABA cec dBG |\
ABA cde fga | fdB ecA BGE :|
|:\
(a/g/f/g/)a ecA ecA | (a/g/f/g/)a fdB fdB |\
(a/g/f/g/)a ecA ecA | fdB ecA BGE :|
W: First Cu. turn Right hands cast off one Cu.
W:.| turn Left hands and cast up again ..| 1st
W:Man foot it to the 2d Wo. and turn .| 1st
W:Wo. do the same to 2d Man ..| Cast off one
W:Cu. and cross to the Bottom .| Cast up one Cu.
W:and cross over to the top ..| Cross over and
W:half figure .| Right and Left ..|
W:
T:Shuter's Humour. JJo8.166
B:J.Johnson Choice Collection Vol 8 1758
Z:vmp.Simon Wilson 2013 www.village-music-project.org.uk
Z:Dance added by John Chambers 2017
M:2/4
L:1/8
%Q:1/2=90
K:D
|: c |\
d2(f/g/a) | fdec | d2(f/g/a) | e2g2 |\
fdec | dBAG | FeEd | D2d :|\
|: e |\
fdec | fdec | dBcA | ^G2A2 |
(A/B/c) (B/c/d) | cefd | caB^g | [Aa]2Ac |\
d2(f/g/a) | fdec | d2(f/g/a) | e2g2 |\
(f/g/a) fd | ecdB | AGFE | D2d :|
W: First Cu. lead thro' 2d Cu. and cast up .|
W:2d Cu. lead thro' 1st Cu. and cast off ..| 1st
W:Man foot to 2d Wo. and not turn 1st Wo.
W:do the same to 2d Man then 1st Cu. cast
W:off one Cu. and turn .| 1st Man foot to 2d
W:Wo. and not turn 1st Wo. foot to 2d Man
W:and not turn. Right and Left at top ..|
W:
